X:1
T:Title
%%score { ( 1 3 ) | 2 }
L:1/8
M:4/4
K:G
V:1 treble nm="Grand Piano"
V:3 treble 
V:2 bass 
V:1
 z4 z2 z[Q:1/4=100] [B,D] | [B,D]2 [CE]>[CF] [B,G]2 [DG][DG] | [DA]2 [DG]A B d2 c | B2 AG c2 BG | %4
 z4 .F2 z2[K:bass] | [B,D]2[K:treble] [CE]>[CF] [B,G]2 [DG][DG] | [DA]2 [DG]A B d2 d | %7
 [=Fd]2 [Ec][Ec] B2 GA |[M:7/8] B2 A>A G3 |[M:1/8] B |[M:4/4] d2 [Fd]2 d3 B | [Ec][Ec]cc B3 B | %12
 [DFA]2 [CGA]2 [DFA]3 [DFA] | z4 .F2 z2[K:bass] | [B,D]2[K:treble] [CE]>[CF] [B,G]2 [DG][DG] | %15
 [DA]2 [DG]A B d2 d | [=Fd]2 [Ec][Ec] B2 GA |[M:7/8] B2 A>A [B,DG]3 |] %18
V:2
 z4 z2 z [G,,G,] | [G,,G,]2 [G,,G,]>[G,,G,] [G,,G,]2 [B,,G,][B,,G,] | %2
 [D,F,]2 [B,,G,][D,F,D][K:treble] [G,D] [G,B,G]2 [G,E] | %3
 [G,D]2 [G,CD][K:bass][G,B,D] [F,A,D]2 [G,D][G,B,D] | [F,D]2 E,>E, D,C,B,,A,, | %5
 [G,,G,]2 [G,,G,]>[G,,G,] [G,,G,]2 [B,,G,][B,,G,] | %6
 [D,F,]2 [B,,G,][D,F,D][K:treble] [G,D] [G,B,G]2 [G,B,G] | %7
 [B,,G,]2 [C,G,][C,G,] [D,G,D]2 [E,G,^C][E,G,C] | %8
[M:7/8] [D,G,D]2 [D,CD]>[D,CD][K:treble] [G,B,D]3 |[M:1/8] [G,B,G] | %10
[M:4/4] [G,B,G]2 [D,C]2 [G,B,G]3[K:bass] [G,D] | [C,G,][D,G,][E,G,E][F,A,D] [G,D]3 [G,D] | %12
 D,2 A,,2 D,3 D, | G,G,F,E, D,C,B,,A,, | [G,,G,]2 [G,,G,]>[G,,G,] [G,,G,]2 [B,,G,][B,,G,] | %15
 [D,F,]2 [B,,G,][D,F,D][K:treble] [G,D] [G,B,G]2 [G,B,G] | %16
 [B,,G,]2 [C,G,][C,G,] [D,G,D]2 [E,G,^C][E,G,C] |[M:7/8] [D,G,D]2 [D,CD]>[D,CD] G,,3 |] %18
V:3
 x8 | x8 | x8 | x8 | A2 [^CGA]>[CGA] [DA]-[DEA-][DA][K:bass][F,=CD] | x2[K:treble] x6 | x8 | x8 | %8
[M:7/8] x7 |[M:1/8] x |[M:4/4] x8 | x8 | x8 | [DGB][DGB][DA][^CG] [DA]-[DEA-][DA][K:bass][F,=CD] | %14
 x2[K:treble] x6 | x8 | x8 |[M:7/8] x7 |] %18

